static/padlock.svg

<svg height="751" viewBox="0 0 445 751" width="445" xmlns="http://www.w3.org/2000/svg"><g fill="#f04e98"><path d="m422.875244 98.187622v-38.269531h-19.120117v19.110351h-19.149414v-19.110351h-19.110108v-19.15918h19.110108v-19.110351h-19.110108v-19.149292h-95.649169v19.149292h-38.269532v19.110351h-19.149658v19.15918h-19.110107v19.110351h-19.158936v38.269287h-19.110107v57.379639h38.269043v-38.230102h19.110107v-38.259644h19.149658v-19.15918h19.110108v-19.110351h95.64917v19.110351h19.159423v19.15918h19.110108v95.639282h-19.110108v38.269593h-19.159423v19.109802h-19.110108v19.159729h-19.159424v19.109863h-19.110107v19.159424h-114.79834v-19.159424h-114.799072v19.159424h-38.269531v19.110352h-19.110108v363.515502h19.110108v19.149781h114.798828v19.119751h95.688476v19.14978h114.759278v-19.14978h19.159423v-38.269532h19.110108v-344.366211h-38.269531v-19.149291h19.159423v-38.269776h19.110108v-19.109863h19.149414v-38.269531h19.120117v-38.269593h19.149414v-95.639282zm-133.918701-57.428711v-19.110351h38.269531v19.110351zm-76.529297 401.785278v57.419068h-19.110107v133.918213h-38.269043v-133.918213h-19.159668v-57.419068h19.159668v-19.110107h38.269043v19.110107zm-95.648926-114.798522v19.149291h19.110108v19.120301h-38.269532v-19.120301h-38.259765v-19.149291zm248.717285 286.976867h-19.159423v57.428528h-19.110108v-57.428528h19.110108v-19.110596h19.159423zm0-38.269531h-19.159423v-38.259888h19.159423zm0-57.369751h-19.159423v-95.64917h-19.110108v-38.269592h38.269531zm57.379639-363.515991h-19.120117v-38.269532h19.120117z" opacity=".5"/><path d="m403.755127 40.758911h-19.149414v19.15918h19.149414z" opacity=".5"/></g></svg>

<?xml version="1.0" encoding="UTF-8"?>
<!-- Generated by Pixelmator Pro 3.8 -->
<svg width="445" height="751" viewBox="0 0 445 751" xmlns="http://www.w3.org/2000/svg">
    <g id="Unlock-copy">
        <g id="Group">
            <g id="g1" opacity="0.5">
                <path id="Path" fill="#F04E98" stroke="none" d="M 422.875244 98.187622 L 422.875244 59.918091 L 403.755127 59.918091 L 403.755127 79.028442 L 384.605713 79.028442 L 384.605713 59.918091 L 365.495605 59.918091 L 365.495605 40.758911 L 384.605713 40.758911 L 384.605713 21.64856 L 365.495605 21.64856 L 365.495605 2.499268 L 269.846436 2.499268 L 269.846436 21.64856 L 231.576904 21.64856 L 231.576904 40.758911 L 212.427246 40.758911 L 212.427246 59.918091 L 193.317139 59.918091 L 193.317139 79.028442 L 174.158203 79.028442 L 174.158203 117.297729 L 155.048096 117.297729 L 155.048096 174.677368 L 193.317139 174.677368 L 193.317139 136.447266 L 212.427246 136.447266 L 212.427246 98.187622 L 231.576904 98.187622 L 231.576904 79.028442 L 250.687012 79.028442 L 250.687012 59.918091 L 346.336182 59.918091 L 346.336182 79.028442 L 365.495605 79.028442 L 365.495605 98.187622 L 384.605713 98.187622 L 384.605713 193.826904 L 365.495605 193.826904 L 365.495605 232.096497 L 346.336182 232.096497 L 346.336182 251.206299 L 327.226074 251.206299 L 327.226074 270.366028 L 308.06665 270.366028 L 308.06665 289.475891 L 288.956543 289.475891 L 288.956543 308.635315 L 174.158203 308.635315 L 174.158203 289.475891 L 59.359131 289.475891 L 59.359131 308.635315 L 21.0896 308.635315 L 21.0896 327.745667 L 1.979492 327.745667 L 1.979492 691.261169 L 21.0896 691.261169 L 21.0896 710.41095 L 135.888428 710.41095 L 135.888428 729.530701 L 231.576904 729.530701 L 231.576904 748.680481 L 346.336182 748.680481 L 346.336182 729.530701 L 365.495605 729.530701 L 365.495605 691.261169 L 384.605713 691.261169 L 384.605713 346.894958 L 346.336182 346.894958 L 346.336182 327.745667 L 365.495605 327.745667 L 365.495605 289.475891 L 384.605713 289.475891 L 384.605713 270.366028 L 403.755127 270.366028 L 403.755127 232.096497 L 422.875244 232.096497 L 422.875244 193.826904 L 442.024658 193.826904 L 442.024658 98.187622 L 422.875244 98.187622 Z M 288.956543 40.758911 L 288.956543 21.64856 L 327.226074 21.64856 L 327.226074 40.758911 L 288.956543 40.758911 Z M 212.427246 442.544189 L 212.427246 499.963257 L 193.317139 499.963257 L 193.317139 633.88147 L 155.048096 633.88147 L 155.048096 499.963257 L 135.888428 499.963257 L 135.888428 442.544189 L 155.048096 442.544189 L 155.048096 423.434082 L 193.317139 423.434082 L 193.317139 442.544189 L 212.427246 442.544189 Z M 116.77832 327.745667 L 116.77832 346.894958 L 135.888428 346.894958 L 135.888428 366.015259 L 97.618896 366.015259 L 97.618896 346.894958 L 59.359131 346.894958 L 59.359131 327.745667 L 116.77832 327.745667 Z M 365.495605 614.722534 L 346.336182 614.722534 L 346.336182 672.151062 L 327.226074 672.151062 L 327.226074 614.722534 L 346.336182 614.722534 L 346.336182 595.611938 L 365.495605 595.611938 L 365.495605 614.722534 Z M 365.495605 576.453003 L 346.336182 576.453003 L 346.336182 538.193115 L 365.495605 538.193115 L 365.495605 576.453003 Z M 365.495605 519.083252 L 346.336182 519.083252 L 346.336182 423.434082 L 327.226074 423.434082 L 327.226074 385.16449 L 365.495605 385.16449 L 365.495605 519.083252 Z M 422.875244 155.567261 L 403.755127 155.567261 L 403.755127 117.297729 L 422.875244 117.297729 L 422.875244 155.567261 Z"/>
            </g>
        </g>
        <g id="g2">
            <path id="path1" fill="#F04E98" stroke="none" opacity="0.5" d="M 403.755127 40.758911 L 384.605713 40.758911 L 384.605713 59.918091 L 403.755127 59.918091 L 403.755127 40.758911 Z"/>
        </g>
    </g>
</svg>
